images/16757880.svg

<?xml version="1.0" encoding="UTF-8"?>
<svg xmlns="http://www.w3.org/2000/svg" xmlns:xlink="http://www.w3.org/1999/xlink" width="300pt" height="300pt" viewBox="0 0 300 300" version="1.1">
<defs>
<g>
<symbol overflow="visible" id="glyph0-0">
<path style="stroke:none;" d="M 0.59375 2.125 L 0.59375 -8.46875 L 6.59375 -8.46875 L 6.59375 2.125 Z M 1.265625 1.453125 L 5.9375 1.453125 L 5.9375 -7.78125 L 1.265625 -7.78125 Z M 1.265625 1.453125 "/>
</symbol>
<symbol overflow="visible" id="glyph0-1">
<path style="stroke:none;" d="M 4.734375 -7.953125 C 3.867188 -7.953125 3.179688 -7.628906 2.671875 -6.984375 C 2.171875 -6.347656 1.921875 -5.472656 1.921875 -4.359375 C 1.921875 -3.265625 2.171875 -2.394531 2.671875 -1.75 C 3.179688 -1.113281 3.867188 -0.796875 4.734375 -0.796875 C 5.585938 -0.796875 6.265625 -1.113281 6.765625 -1.75 C 7.273438 -2.394531 7.53125 -3.265625 7.53125 -4.359375 C 7.53125 -5.472656 7.273438 -6.347656 6.765625 -6.984375 C 6.265625 -7.628906 5.585938 -7.953125 4.734375 -7.953125 Z M 4.734375 -8.90625 C 5.953125 -8.90625 6.925781 -8.492188 7.65625 -7.671875 C 8.394531 -6.847656 8.765625 -5.742188 8.765625 -4.359375 C 8.765625 -2.984375 8.394531 -1.882812 7.65625 -1.0625 C 6.925781 -0.238281 5.953125 0.171875 4.734375 0.171875 C 3.503906 0.171875 2.519531 -0.238281 1.78125 -1.0625 C 1.039062 -1.882812 0.671875 -2.984375 0.671875 -4.359375 C 0.671875 -5.742188 1.039062 -6.847656 1.78125 -7.671875 C 2.519531 -8.492188 3.503906 -8.90625 4.734375 -8.90625 Z M 4.734375 -8.90625 "/>
</symbol>
<symbol overflow="visible" id="glyph0-2">
<path style="stroke:none;" d="M 1.171875 -8.75 L 2.765625 -8.75 L 6.65625 -1.4375 L 6.65625 -8.75 L 7.796875 -8.75 L 7.796875 0 L 6.203125 0 L 2.328125 -7.3125 L 2.328125 0 L 1.171875 0 Z M 1.171875 -8.75 "/>
</symbol>
<symbol overflow="visible" id="glyph0-3">
<path style="stroke:none;" d="M 1.171875 -8.75 L 2.359375 -8.75 L 2.359375 -5.15625 L 6.65625 -5.15625 L 6.65625 -8.75 L 7.84375 -8.75 L 7.84375 0 L 6.65625 0 L 6.65625 -4.171875 L 2.359375 -4.171875 L 2.359375 0 L 1.171875 0 Z M 1.171875 -8.75 "/>
</symbol>
<symbol overflow="visible" id="glyph1-0">
<path style="stroke:none;" d="M 0.5 1.765625 L 0.5 -7.046875 L 5.5 -7.046875 L 5.5 1.765625 Z M 1.0625 1.21875 L 4.9375 1.21875 L 4.9375 -6.484375 L 1.0625 -6.484375 Z M 1.0625 1.21875 "/>
</symbol>
<symbol overflow="visible" id="glyph1-1">
<path style="stroke:none;" d="M 1.921875 -0.828125 L 5.359375 -0.828125 L 5.359375 0 L 0.734375 0 L 0.734375 -0.828125 C 1.109375 -1.210938 1.617188 -1.734375 2.265625 -2.390625 C 2.910156 -3.046875 3.316406 -3.46875 3.484375 -3.65625 C 3.796875 -4.007812 4.015625 -4.304688 4.140625 -4.546875 C 4.265625 -4.796875 4.328125 -5.039062 4.328125 -5.28125 C 4.328125 -5.664062 4.191406 -5.976562 3.921875 -6.21875 C 3.648438 -6.46875 3.296875 -6.59375 2.859375 -6.59375 C 2.546875 -6.59375 2.21875 -6.535156 1.875 -6.421875 C 1.539062 -6.316406 1.175781 -6.15625 0.78125 -5.9375 L 0.78125 -6.9375 C 1.175781 -7.09375 1.546875 -7.210938 1.890625 -7.296875 C 2.234375 -7.378906 2.550781 -7.421875 2.84375 -7.421875 C 3.59375 -7.421875 4.191406 -7.234375 4.640625 -6.859375 C 5.097656 -6.484375 5.328125 -5.976562 5.328125 -5.34375 C 5.328125 -5.039062 5.269531 -4.753906 5.15625 -4.484375 C 5.039062 -4.222656 4.835938 -3.910156 4.546875 -3.546875 C 4.460938 -3.453125 4.203125 -3.175781 3.765625 -2.71875 C 3.328125 -2.269531 2.710938 -1.640625 1.921875 -0.828125 Z M 1.921875 -0.828125 "/>
</symbol>
</g>
</defs>
<g id="surface33741">
<rect x="0" y="0" width="300" height="300" style="fill:rgb(100%,100%,100%);fill-opacity:1;stroke:none;"/>
<path style="fill:none;stroke-width:1.2;stroke-linecap:butt;stroke-linejoin:miter;stroke:rgb(0%,0%,0%);stroke-opacity:1;stroke-miterlimit:10;" d="M 35.25 144.878906 L 66.546875 142.832031 "/>
<path style="fill:none;stroke-width:1.2;stroke-linecap:butt;stroke-linejoin:miter;stroke:rgb(0%,0%,0%);stroke-opacity:1;stroke-miterlimit:10;" d="M 66.546875 142.832031 L 80.421875 114.703125 "/>
<path style="fill:none;stroke-width:1.2;stroke-linecap:butt;stroke-linejoin:miter;stroke:rgb(0%,0%,0%);stroke-opacity:1;stroke-miterlimit:10;" d="M 74.550781 143.28125 L 85.652344 120.777344 "/>
<path style="fill:none;stroke-width:1.2;stroke-linecap:butt;stroke-linejoin:miter;stroke:rgb(0%,0%,0%);stroke-opacity:1;stroke-miterlimit:10;" d="M 83.96875 168.910156 L 66.546875 142.832031 "/>
<path style="fill:none;stroke-width:1.2;stroke-linecap:butt;stroke-linejoin:miter;stroke:rgb(0%,0%,0%);stroke-opacity:1;stroke-miterlimit:10;" d="M 80.421875 114.703125 L 111.71875 112.652344 "/>
<path style="fill:none;stroke-width:1.2;stroke-linecap:butt;stroke-linejoin:miter;stroke:rgb(0%,0%,0%);stroke-opacity:1;stroke-miterlimit:10;" d="M 80.421875 114.703125 L 71.707031 101.664062 "/>
<path style="fill:none;stroke-width:1.2;stroke-linecap:butt;stroke-linejoin:miter;stroke:rgb(0%,0%,100%);stroke-opacity:1;stroke-miterlimit:10;" d="M 71.707031 101.664062 L 62.996094 88.621094 "/>
<path style="fill:none;stroke-width:1.2;stroke-linecap:butt;stroke-linejoin:miter;stroke:rgb(0%,0%,0%);stroke-opacity:1;stroke-miterlimit:10;" d="M 115.027344 114.285156 L 121.964844 100.21875 "/>
<path style="fill:none;stroke-width:1.2;stroke-linecap:butt;stroke-linejoin:miter;stroke:rgb(100%,0%,0%);stroke-opacity:1;stroke-miterlimit:10;" d="M 121.964844 100.21875 L 128.898438 86.15625 "/>
<path style="fill:none;stroke-width:1.2;stroke-linecap:butt;stroke-linejoin:miter;stroke:rgb(0%,0%,0%);stroke-opacity:1;stroke-miterlimit:10;" d="M 108.40625 111.019531 L 115.34375 96.957031 "/>
<path style="fill:none;stroke-width:1.2;stroke-linecap:butt;stroke-linejoin:miter;stroke:rgb(100%,0%,0%);stroke-opacity:1;stroke-miterlimit:10;" d="M 115.34375 96.957031 L 122.28125 82.890625 "/>
<path style="fill:none;stroke-width:1.2;stroke-linecap:butt;stroke-linejoin:miter;stroke:rgb(0%,0%,0%);stroke-opacity:1;stroke-miterlimit:10;" d="M 111.71875 112.652344 L 129.140625 138.730469 "/>
<path style=" stroke:none;fill-rule:nonzero;fill:rgb(100%,100%,100%);fill-opacity:1;" d="M 120.589844 77.523438 L 130.589844 77.523438 L 130.589844 91.523438 L 120.589844 91.523438 Z M 120.589844 77.523438 "/>
<g style="fill:rgb(100%,0%,0%);fill-opacity:1;">
  <use xlink:href="#glyph0-1" x="120.589844" y="88.662109"/>
</g>
<path style="fill:none;stroke-width:1.2;stroke-linecap:butt;stroke-linejoin:miter;stroke:rgb(0%,0%,0%);stroke-opacity:1;stroke-miterlimit:10;" d="M 129.140625 138.730469 L 115.265625 166.859375 "/>
<path style="fill:none;stroke-width:1.2;stroke-linecap:butt;stroke-linejoin:miter;stroke:rgb(0%,0%,0%);stroke-opacity:1;stroke-miterlimit:10;" d="M 134.371094 144.808594 L 123.273438 167.3125 "/>
<path style="fill:none;stroke-width:1.2;stroke-linecap:butt;stroke-linejoin:miter;stroke:rgb(0%,0%,0%);stroke-opacity:1;stroke-miterlimit:10;" d="M 160.179688 143.234375 L 129.140625 138.730469 "/>
<path style="fill:none;stroke-width:1.2;stroke-linecap:butt;stroke-linejoin:miter;stroke:rgb(0%,0%,0%);stroke-opacity:1;stroke-miterlimit:10;" d="M 115.265625 166.859375 L 83.96875 168.910156 "/>
<path style="fill:none;stroke-width:1.2;stroke-linecap:butt;stroke-linejoin:miter;stroke:rgb(0%,0%,0%);stroke-opacity:1;stroke-miterlimit:10;" d="M 115.265625 166.859375 L 126.5 177.804688 "/>
<path style="fill:none;stroke-width:1.2;stroke-linecap:butt;stroke-linejoin:miter;stroke:rgb(0%,0%,100%);stroke-opacity:1;stroke-miterlimit:10;" d="M 126.5 177.804688 L 137.730469 188.746094 "/>
<path style="fill:none;stroke-width:1.2;stroke-linecap:butt;stroke-linejoin:miter;stroke:rgb(0%,0%,0%);stroke-opacity:1;stroke-miterlimit:10;" d="M 80.660156 167.277344 L 73.722656 181.34375 "/>
<path style="fill:none;stroke-width:1.2;stroke-linecap:butt;stroke-linejoin:miter;stroke:rgb(100%,0%,0%);stroke-opacity:1;stroke-miterlimit:10;" d="M 73.722656 181.34375 L 66.789062 195.40625 "/>
<path style="fill:none;stroke-width:1.2;stroke-linecap:butt;stroke-linejoin:miter;stroke:rgb(0%,0%,0%);stroke-opacity:1;stroke-miterlimit:10;" d="M 87.28125 170.542969 L 80.34375 184.605469 "/>
<path style="fill:none;stroke-width:1.2;stroke-linecap:butt;stroke-linejoin:miter;stroke:rgb(100%,0%,0%);stroke-opacity:1;stroke-miterlimit:10;" d="M 80.34375 184.605469 L 73.40625 198.671875 "/>
<path style=" stroke:none;fill-rule:nonzero;fill:rgb(100%,100%,100%);fill-opacity:1;" d="M 60.097656 190.039062 L 70.097656 190.039062 L 70.097656 204.039062 L 60.097656 204.039062 Z M 60.097656 190.039062 "/>
<g style="fill:rgb(100%,0%,0%);fill-opacity:1;">
  <use xlink:href="#glyph0-1" x="60.097656" y="201.177734"/>
</g>
<path style="fill:none;stroke-width:1.2;stroke-linecap:butt;stroke-linejoin:miter;stroke:rgb(0%,0%,100%);stroke-opacity:1;stroke-miterlimit:10;" d="M 137.730469 188.746094 L 140.386719 204.203125 "/>
<path style="fill:none;stroke-width:1.2;stroke-linecap:butt;stroke-linejoin:miter;stroke:rgb(0%,0%,0%);stroke-opacity:1;stroke-miterlimit:10;" d="M 140.386719 204.203125 L 143.042969 219.65625 "/>
<path style="fill:none;stroke-width:1.2;stroke-linecap:butt;stroke-linejoin:miter;stroke:rgb(0%,0%,0%);stroke-opacity:1;stroke-miterlimit:10;" d="M 165.488281 174.144531 L 151.609375 181.445312 "/>
<path style="fill:none;stroke-width:1.2;stroke-linecap:butt;stroke-linejoin:miter;stroke:rgb(0%,0%,100%);stroke-opacity:1;stroke-miterlimit:10;" d="M 151.609375 181.445312 L 137.730469 188.746094 "/>
<path style=" stroke:none;fill-rule:nonzero;fill:rgb(100%,100%,100%);fill-opacity:1;" d="M 133.730469 181.746094 L 142.730469 181.746094 L 142.730469 195.746094 L 133.730469 195.746094 Z M 133.730469 181.746094 "/>
<g style="fill:rgb(0%,0%,100%);fill-opacity:1;">
  <use xlink:href="#glyph0-2" x="133.730469" y="192.884766"/>
</g>
<path style="fill:none;stroke-width:1.2;stroke-linecap:butt;stroke-linejoin:miter;stroke:rgb(0%,0%,0%);stroke-opacity:1;stroke-miterlimit:10;" d="M 143.042969 219.65625 L 174.082031 224.160156 "/>
<path style="fill:none;stroke-width:1.2;stroke-linecap:butt;stroke-linejoin:miter;stroke:rgb(0%,0%,0%);stroke-opacity:1;stroke-miterlimit:10;" d="M 174.082031 224.160156 L 187.953125 196.03125 "/>
<path style="fill:none;stroke-width:1.2;stroke-linecap:butt;stroke-linejoin:miter;stroke:rgb(0%,0%,100%);stroke-opacity:1;stroke-miterlimit:10;" d="M 205.378906 222.109375 L 189.730469 223.136719 "/>
<path style="fill:none;stroke-width:1.2;stroke-linecap:butt;stroke-linejoin:miter;stroke:rgb(0%,0%,0%);stroke-opacity:1;stroke-miterlimit:10;" d="M 189.730469 223.136719 L 174.082031 224.160156 "/>
<path style="fill:none;stroke-width:1.2;stroke-linecap:butt;stroke-linejoin:miter;stroke:rgb(0%,0%,0%);stroke-opacity:1;stroke-miterlimit:10;" d="M 187.953125 196.03125 L 165.488281 174.144531 "/>
<path style="fill:none;stroke-width:1.2;stroke-linecap:butt;stroke-linejoin:miter;stroke:rgb(0%,0%,0%);stroke-opacity:1;stroke-miterlimit:10;" d="M 187.953125 196.03125 L 196.664062 209.070312 "/>
<path style="fill:none;stroke-width:1.2;stroke-linecap:butt;stroke-linejoin:miter;stroke:rgb(0%,0%,100%);stroke-opacity:1;stroke-miterlimit:10;" d="M 196.664062 209.070312 L 205.378906 222.109375 "/>
<path style="fill:none;stroke-width:1.2;stroke-linecap:butt;stroke-linejoin:miter;stroke:rgb(0%,0%,0%);stroke-opacity:1;stroke-miterlimit:10;" d="M 165.488281 174.144531 L 160.179688 143.234375 "/>
<path style=" stroke:none;fill-rule:nonzero;fill:rgb(0%,0%,0%);fill-opacity:1;" d="M 165.488281 174.144531 L 195.824219 164.441406 L 190.671875 154.644531 Z M 165.488281 174.144531 "/>
<path style="fill:none;stroke-width:1.2;stroke-linecap:butt;stroke-linejoin:miter;stroke:rgb(0%,0%,0%);stroke-opacity:1;stroke-miterlimit:10;" d="M 160.179688 143.234375 L 182.066406 120.769531 "/>
<path style="fill:none;stroke-width:1.2;stroke-linecap:butt;stroke-linejoin:miter;stroke:rgb(0%,0%,0%);stroke-opacity:1;stroke-miterlimit:10;" d="M 182.066406 120.769531 L 197.265625 124.628906 "/>
<path style="fill:none;stroke-width:1.2;stroke-linecap:butt;stroke-linejoin:miter;stroke:rgb(100%,0%,0%);stroke-opacity:1;stroke-miterlimit:10;" d="M 197.265625 124.628906 L 212.464844 128.492188 "/>
<path style="fill:none;stroke-width:1.2;stroke-linecap:butt;stroke-linejoin:miter;stroke:rgb(100%,0%,0%);stroke-opacity:1;stroke-miterlimit:10;" d="M 212.464844 128.492188 L 223.410156 117.257812 "/>
<path style="fill:none;stroke-width:1.2;stroke-linecap:butt;stroke-linejoin:miter;stroke:rgb(0%,0%,0%);stroke-opacity:1;stroke-miterlimit:10;" d="M 223.410156 117.257812 L 234.351562 106.027344 "/>
<path style=" stroke:none;fill-rule:nonzero;fill:rgb(100%,100%,100%);fill-opacity:1;" d="M 207.464844 121.492188 L 217.464844 121.492188 L 217.464844 135.492188 L 207.464844 135.492188 Z M 207.464844 121.492188 "/>
<g style="fill:rgb(100%,0%,0%);fill-opacity:1;">
  <use xlink:href="#glyph0-1" x="207.464844" y="132.630859"/>
</g>
<path style="fill:none;stroke-width:1.2;stroke-linecap:butt;stroke-linejoin:miter;stroke:rgb(0%,0%,0%);stroke-opacity:1;stroke-miterlimit:10;" d="M 237.902344 105.023438 L 233.648438 89.929688 "/>
<path style="fill:none;stroke-width:1.2;stroke-linecap:butt;stroke-linejoin:miter;stroke:rgb(100%,0%,0%);stroke-opacity:1;stroke-miterlimit:10;" d="M 233.648438 89.929688 L 229.390625 74.839844 "/>
<path style="fill:none;stroke-width:1.2;stroke-linecap:butt;stroke-linejoin:miter;stroke:rgb(0%,0%,0%);stroke-opacity:1;stroke-miterlimit:10;" d="M 230.800781 107.027344 L 226.542969 91.933594 "/>
<path style="fill:none;stroke-width:1.2;stroke-linecap:butt;stroke-linejoin:miter;stroke:rgb(100%,0%,0%);stroke-opacity:1;stroke-miterlimit:10;" d="M 226.542969 91.933594 L 222.289062 76.839844 "/>
<path style="fill:none;stroke-width:1.2;stroke-linecap:butt;stroke-linejoin:miter;stroke:rgb(0%,0%,0%);stroke-opacity:1;stroke-miterlimit:10;" d="M 234.351562 106.027344 L 249.550781 109.886719 "/>
<path style="fill:none;stroke-width:1.2;stroke-linecap:butt;stroke-linejoin:miter;stroke:rgb(0%,0%,100%);stroke-opacity:1;stroke-miterlimit:10;" d="M 249.550781 109.886719 L 264.75 113.75 "/>
<path style=" stroke:none;fill-rule:nonzero;fill:rgb(100%,100%,100%);fill-opacity:1;" d="M 220.839844 68.839844 L 230.839844 68.839844 L 230.839844 82.839844 L 220.839844 82.839844 Z M 220.839844 68.839844 "/>
<g style="fill:rgb(100%,0%,0%);fill-opacity:1;">
  <use xlink:href="#glyph0-1" x="220.839844" y="79.978516"/>
</g>
<path style=" stroke:none;fill-rule:nonzero;fill:rgb(100%,100%,100%);fill-opacity:1;" d="M 252.75 104.25 L 277.75 104.25 L 277.75 123.25 L 252.75 123.25 Z M 252.75 104.25 "/>
<g style="fill:rgb(0%,0%,100%);fill-opacity:1;">
  <use xlink:href="#glyph0-2" x="252.75" y="115.388672"/>
  <use xlink:href="#glyph0-3" x="261.726562" y="115.388672"/>
</g>
<g style="fill:rgb(0%,0%,100%);fill-opacity:1;">
  <use xlink:href="#glyph1-1" x="270.75" y="120.271484"/>
</g>
<path style="fill:none;stroke-width:1.2;stroke-linecap:butt;stroke-linejoin:miter;stroke:rgb(100%,0%,0%);stroke-opacity:1;stroke-miterlimit:10;" d="M 193.246094 159.542969 L 206.507812 167.910156 "/>
<path style="fill:none;stroke-width:1.2;stroke-linecap:butt;stroke-linejoin:miter;stroke:rgb(0%,0%,0%);stroke-opacity:1;stroke-miterlimit:10;" d="M 206.507812 167.910156 L 219.769531 176.28125 "/>
<path style=" stroke:none;fill-rule:nonzero;fill:rgb(100%,100%,100%);fill-opacity:1;" d="M 188.246094 152.542969 L 198.246094 152.542969 L 198.246094 166.542969 L 188.246094 166.542969 Z M 188.246094 152.542969 "/>
<g style="fill:rgb(100%,0%,0%);fill-opacity:1;">
  <use xlink:href="#glyph0-1" x="188.246094" y="163.681641"/>
</g>
<path style=" stroke:none;fill-rule:nonzero;fill:rgb(100%,100%,100%);fill-opacity:1;" d="M 196.378906 215.109375 L 214.378906 215.109375 L 214.378906 229.109375 L 196.378906 229.109375 Z M 196.378906 215.109375 "/>
<g style="fill:rgb(0%,0%,100%);fill-opacity:1;">
  <use xlink:href="#glyph0-2" x="196.378906" y="226.248047"/>
  <use xlink:href="#glyph0-3" x="205.355469" y="226.248047"/>
</g>
<path style=" stroke:none;fill-rule:nonzero;fill:rgb(100%,100%,100%);fill-opacity:1;" d="M 37.996094 79.121094 L 62.996094 79.121094 L 62.996094 98.121094 L 37.996094 98.121094 Z M 37.996094 79.121094 "/>
<g style="fill:rgb(0%,0%,100%);fill-opacity:1;">
  <use xlink:href="#glyph0-3" x="37.996094" y="90.259766"/>
</g>
<g style="fill:rgb(0%,0%,100%);fill-opacity:1;">
  <use xlink:href="#glyph1-1" x="47.019531" y="95.142578"/>
</g>
<g style="fill:rgb(0%,0%,100%);fill-opacity:1;">
  <use xlink:href="#glyph0-2" x="53.381836" y="90.259766"/>
</g>
</g>
</svg>

<svg xmlns="http://www.w3.org/2000/svg" xmlns:xlink="http://www.w3.org/1999/xlink" width="300pt" height="300pt" viewBox="0 0 300 300"><defs><symbol overflow="visible"><path d="M.594 2.125V-8.47h6V2.126zm.672-.672h4.671V-7.78h-4.67zm0 0"/></symbol><symbol overflow="visible" id="a"><path d="M4.734-7.953c-.867 0-1.554.324-2.062.97-.5.635-.75 1.51-.75 2.624 0 1.094.25 1.965.75 2.61.508.637 1.195.953 2.062.953.852 0 1.532-.316 2.032-.953.507-.645.765-1.516.765-2.61 0-1.113-.257-1.988-.764-2.624-.5-.645-1.18-.97-2.032-.97zm0-.953c1.22 0 2.192.414 2.922 1.234.74.824 1.11 1.93 1.11 3.313 0 1.376-.37 2.477-1.11 3.298C6.926-.24 5.953.17 4.734.17c-1.23 0-2.214-.41-2.953-1.234C1.04-1.882.673-2.984.673-4.36c0-1.382.367-2.488 1.11-3.312.738-.82 1.722-1.234 2.952-1.234zm0 0"/></symbol><symbol overflow="visible" id="b"><path d="M1.172-8.75h1.594l3.89 7.313V-8.75h1.14V0H6.204L2.328-7.313V0H1.172zm0 0"/></symbol><symbol overflow="visible" id="c"><path d="M1.172-8.75H2.36v3.594h4.296V-8.75h1.188V0H6.656v-4.172H2.36V0H1.17zm0 0"/></symbol><symbol overflow="visible"><path d="M.5 1.766v-8.813h5v8.813zm.563-.547h3.875v-7.704H1.063zm0 0"/></symbol><symbol overflow="visible" id="d"><path d="M1.922-.828H5.36V0H.733v-.828c.375-.383.883-.906 1.532-1.563.644-.657 1.05-1.08 1.218-1.266.313-.352.532-.65.657-.89.126-.25.188-.493.188-.735 0-.384-.137-.697-.406-.94-.274-.25-.625-.374-1.063-.374-.313 0-.64.06-.985.172-.336.106-.7.266-1.094.484v-1c.396-.156.767-.273 1.11-.36.344-.08.66-.124.954-.124.75 0 1.347.188 1.797.563.458.376.688.883.688 1.516 0 .305-.058.59-.172.86-.117.26-.32.574-.61.937-.085.094-.343.37-.78.828-.438.45-1.055 1.08-1.844 1.892zm0 0"/></symbol></defs><g><path fill="#fff" d="M0 0h300v300H0z"/><path d="M35.25 144.88l31.297-2.048M66.547 142.832l13.875-28.13M74.55 143.28l11.102-22.503M83.97 168.91l-17.423-26.078M80.422 114.703l31.297-2.05M80.422 114.703l-8.715-13.04" stroke-width="1.2" stroke="#000" stroke-miterlimit="10" fill="none"/><path d="M71.707 101.664l-8.71-13.043" stroke-width="1.2" stroke="#00f" stroke-miterlimit="10" fill="none"/><path d="M115.027 114.285l6.938-14.066" stroke-width="1.2" stroke="#000" stroke-miterlimit="10" fill="none"/><path d="M121.965 100.22l6.933-14.064" stroke-width="1.2" stroke="#f00" stroke-miterlimit="10" fill="none"/><path d="M108.406 111.02l6.938-14.063" stroke-width="1.2" stroke="#000" stroke-miterlimit="10" fill="none"/><path d="M115.344 96.957l6.937-14.066" stroke-width="1.2" stroke="#f00" stroke-miterlimit="10" fill="none"/><path d="M111.72 112.652l17.42 26.078" stroke-width="1.2" stroke="#000" stroke-miterlimit="10" fill="none"/><path d="M120.59 77.523h10v14h-10zm0 0" fill="#fff"/><use xlink:href="#a" x="120.59" y="88.662" fill="#f00"/><path d="M129.14 138.73l-13.874 28.13M134.37 144.81l-11.097 22.502M160.18 143.234l-31.04-4.504M115.266 166.86l-31.297 2.05M115.266 166.86l11.234 10.945" stroke-width="1.2" stroke="#000" stroke-miterlimit="10" fill="none"/><path d="M126.5 177.805l11.23 10.94" stroke-width="1.2" stroke="#00f" stroke-miterlimit="10" fill="none"/><path d="M80.66 167.277l-6.937 14.067" stroke-width="1.2" stroke="#000" stroke-miterlimit="10" fill="none"/><path d="M73.723 181.344l-6.934 14.062" stroke-width="1.2" stroke="#f00" stroke-miterlimit="10" fill="none"/><path d="M87.28 170.543l-6.936 14.062" stroke-width="1.2" stroke="#000" stroke-miterlimit="10" fill="none"/><path d="M80.344 184.605l-6.938 14.067" stroke-width="1.2" stroke="#f00" stroke-miterlimit="10" fill="none"/><path d="M60.098 190.04h10v14h-10zm0 0" fill="#fff"/><use xlink:href="#a" x="60.098" y="201.178" fill="#f00"/><path d="M137.73 188.746l2.657 15.457" stroke-width="1.2" stroke="#00f" stroke-miterlimit="10" fill="none"/><path d="M140.387 204.203l2.656 15.453M165.488 174.145l-13.88 7.3" stroke-width="1.2" stroke="#000" stroke-miterlimit="10" fill="none"/><path d="M151.61 181.445l-13.88 7.3" stroke-width="1.2" stroke="#00f" stroke-miterlimit="10" fill="none"/><path d="M133.73 181.746h9v14h-9zm0 0" fill="#fff"/><use xlink:href="#b" x="133.73" y="192.885" fill="#00f"/><path d="M143.043 219.656l31.04 4.504M174.082 224.16l13.87-28.13" stroke-width="1.2" stroke="#000" stroke-miterlimit="10" fill="none"/><path d="M205.38 222.11l-15.65 1.027" stroke-width="1.2" stroke="#00f" stroke-miterlimit="10" fill="none"/><path d="M189.73 223.137l-15.648 1.023M187.953 196.03l-22.465-21.885M187.953 196.03l8.71 13.04" stroke-width="1.2" stroke="#000" stroke-miterlimit="10" fill="none"/><path d="M196.664 209.07l8.715 13.04" stroke-width="1.2" stroke="#00f" stroke-miterlimit="10" fill="none"/><path d="M165.488 174.145l-5.308-30.91" stroke-width="1.2" stroke="#000" stroke-miterlimit="10" fill="none"/><path d="M165.488 174.145l30.336-9.704-5.152-9.795zm0 0"/><path d="M160.18 143.234l21.886-22.464M182.066 120.77l15.2 3.86" stroke-width="1.2" stroke="#000" stroke-miterlimit="10" fill="none"/><path d="M197.266 124.63l15.2 3.862M212.465 128.492l10.945-11.234" stroke-width="1.2" stroke="#f00" stroke-miterlimit="10" fill="none"/><path d="M223.41 117.258l10.942-11.23" stroke-width="1.2" stroke="#000" stroke-miterlimit="10" fill="none"/><path d="M207.465 121.492h10v14h-10zm0 0" fill="#fff"/><use xlink:href="#a" x="207.465" y="132.631" fill="#f00"/><path d="M237.902 105.023l-4.254-15.093" stroke-width="1.2" stroke="#000" stroke-miterlimit="10" fill="none"/><path d="M233.648 89.93l-4.257-15.09" stroke-width="1.2" stroke="#f00" stroke-miterlimit="10" fill="none"/><path d="M230.8 107.027l-4.257-15.093" stroke-width="1.2" stroke="#000" stroke-miterlimit="10" fill="none"/><path d="M226.543 91.934L222.29 76.84" stroke-width="1.2" stroke="#f00" stroke-miterlimit="10" fill="none"/><path d="M234.352 106.027l15.2 3.86" stroke-width="1.2" stroke="#000" stroke-miterlimit="10" fill="none"/><path d="M249.55 109.887l15.2 3.863" stroke-width="1.2" stroke="#00f" stroke-miterlimit="10" fill="none"/><path d="M220.84 68.84h10v14h-10zm0 0" fill="#fff"/><use xlink:href="#a" x="220.84" y="79.979" fill="#f00"/><path d="M252.75 104.25h25v19h-25zm0 0" fill="#fff"/><g fill="#00f"><use xlink:href="#b" x="252.75" y="115.389"/><use xlink:href="#c" x="261.727" y="115.389"/></g><use xlink:href="#d" x="270.75" y="120.271" fill="#00f"/><path d="M193.246 159.543l13.262 8.367" stroke-width="1.2" stroke="#f00" stroke-miterlimit="10" fill="none"/><path d="M206.508 167.91l13.262 8.37" stroke-width="1.2" stroke="#000" stroke-miterlimit="10" fill="none"/><path d="M188.246 152.543h10v14h-10zm0 0" fill="#fff"/><use xlink:href="#a" x="188.246" y="163.682" fill="#f00"/><path d="M196.38 215.11h18v14h-18zm0 0" fill="#fff"/><g fill="#00f"><use xlink:href="#b" x="196.379" y="226.248"/><use xlink:href="#c" x="205.355" y="226.248"/></g><path d="M37.996 79.12h25v19h-25zm0 0" fill="#fff"/><use xlink:href="#c" x="37.996" y="90.26" fill="#00f"/><use xlink:href="#d" x="47.02" y="95.143" fill="#00f"/><use xlink:href="#b" x="53.382" y="90.26" fill="#00f"/></g></svg>
